!!!ONB: MCCC : ISR0007_03 : Extracted Monophonic Melody
!!!COM: Rachmaninoff, Sergei
!!!OPR: Cello Sonata
!!!OMV: 3
!!!SCT: Op.19
!!!ODT: 1901///
**kern
*staff1
=1
*clefG2
*k[b-e-a-]
*E-:
*M4/4
16G-
16B-
8b-
8r
8b-
16b-
16b-
16b-[
16b-]
16b-[
16b-]
8e-
=2
16e-[
16e-]
16e-[
16e-]
2b-
16r
16e-
16B-
16e-
=3
16G-
16B-
8b-
8r
8b-
16b-[
16b-]
16cc[
16cc]
16b-[
16b-]
8e-
=4
16e-[
16e-]
16e-[
16e-]
2b-
16r
16e-
16B-
16e-
=5
16G-
16c
8cc
16r
16e-
16c
16e-
16B-
16e-
16g
16e-
8dd
8cc
=6
16r
16B-
16d
16B-
16g
16B-
16d
16B-
16r
16B-
16d-
16B-
4a-
=7
16r
16G
16B-
16G
16e-
16G
16B-
16G
16r
16A-
8f
8g
8a-
=8
8r
8cc
16r
16e-
8f
16ff[
16ff]
16e-
16B-
16f
16A-
16d
16A-
=9
8r
8B-
8B-
8B-
4.B-
8E-
=10
4E-
2.B-
=11
8r
8B-
8B-
8B-
8B-
8c
8B-
8E-
=12
4E-
2B-[
8B-]
8G
=13
8G
8A-
2c
8B-
8A-
=14
2.B-
4c
=15
8e-
8d
2e-
4f
=16
4f
2e-
8d
8c
=17
4B-
4r
2r
=18
12a
12b-
12a
12a
12g
12a
4.b-
8a
=19
4r
2b-
8.dd
16dd
=20
4b-
12dd
12a
12cc
16dd
16dd
16dd
16dd
16dd[
16dd]
8cc
=21
4r
4dd[
8dd]
8ee
8gg
8aa
=22
2ff
4ee-
4cc
=23
2r
4r
8r
8G
=24
12G
12F
12G
4A-[
8A-]
8B-
6c
12G
=25
12G
12A-
12G
12G
12F
12G
4.A-
8G
=26
8F
8G
4A-[
8A-]
8B-
8c
8d
=27
6e-
12d
12c
12G
12B-
4.c
8B-
=28
8A-
8B-
4c[
8c]
8d
8f
8g
=29
4.e-
8d
8d-
8B-
8B-
8B
=30
12A-
12G
12A-
2B-[
8B-]
8E-
=31
4E-
8r
8E-
12E
12G-
12A-
12B-
12A-
12B-
=32
6e-
12G
12G
12B-
12d
12d
12B-
12d
6g
12g-
=33
4.g-
8G-
12G
12B-
12d-
12d-
12B-
12d-
=34
6g-
12B-
12B-
12c
12d-
12f
12d-
12e-
6f
12f
=35
6b-
12d-
12d-
12e-
12f
6f
12d-
12d-
12e-
12f
=36
6f
12d-
12d-
12e-
12f
12f
12e-
12f
12f
12e-
12f
=37
12b-
12a-
12f
12d
12c
12d
12c
12B-
12G
12G
12B-
12G
=38
12F
12G
12F
12E-
12F
12E-
12D-
12C
12C
12C
12BB
12BB
=39
12BB-
12BB-
12BB-[
16BB-]
16BB-
8BB-
12BB-
12BB-
12BB-[
16BB-]
16BB-
8BB-
=40
12BB-
12BB-
12BB-[
16BB-]
16BB-
8BB-
8BB-
8BB-
8.BB-
16EE-
=41
4EE-[
12EE-]
12g
12a-
12g
12g-
12g-
12g-
12g
12g
=42
12g
12a-
12b-
12a-
12g
12g
12g
12f
12e-
12e-
12f
12g[
=43
4g]
12r
12g
12a-
12g
12g-
12g-
12g-
12g
12g
=44
12g
12a-
12b-
12a-
12g
12g-
12g-
12g
12f
12e-
12f
12g[
=45
12g]
12f#
12g
12g-
12f
12g-
12g-
12g
12g
12g
12ee-
12ee-
=46
12ee-
12dd
12dd
12dd
12ee-
12dd
12cc#
12b
12b
12b
12dd-
12b
=47
12b
12b-
12b-
12b-
12a-
12g
12g
12a-
12g
12g
12f
12f
=48
12f
12e-
12e-
12d
12c
12c
12e-
12d
12d
12c
12d
12B-
=49
8r
8B-
8B-
8B-
4.B-
8E-
=50
4E-
2.B-
=51
8r
8B-
8B-
8B-
8B-
8c
8B-
8E-
=52
4E-
2B-[
8B-]
8G
=53
8G
8A-
2c
8B-
8A-
=54
2.B-
4c
=55
8e-
8d
2e-
4f
=56
4f
2g
4g
=57
4.b
8b
8b
8b
8.b
16e-
=58
[2e-
8e-]
8F
8G
8A-
=59
8B-
8c
8e-
8f
4.a-
8b-
=60
2.e-
4r
=61
1r
=62
8r
8b-
8b-
8b-
4.b-
8e-
=63
4e-
8a-
8g
8g
8f
8g
8a-
=64
2.b-
4r
=65
1r
=66
2c
4.d[
16d]
16f
=67
[1e-
=68
1e-]
==
*-
